X: 11363
T: Earl Of Thomond, The
R: barndance
M: 4/4
K: Gmajor
D|B,DGA B2 B/c/B|cdcA Bdde|dA A/B/A Adde|dBcA BGEG|
DGGA B2 B/c/B|cdcA Bdde|dA A/B/A Adde|fdcA G3 D|
B,DGA B2 B/c/B|cEAc Bcde|dA A/B/A Adde|dBcA BGEG|
DGGA BDGB|cEAc Bcde|dA A/B/A Adde|fdcA G3 B|
|:d2 d/^c/d dBgB|c2 cB cAdc|B3 G DGBG|A^GAB cBce|
d2 d/^c/d dBgB|c2 cB cAdc|Bdgd A2 af|1 gedB G3 B:|2
gedB G3 D||

